X:1
T:Title
%%score { 1 | 2 }
L:1/8
M:6/8
K:Ab
V:1 treble nm="Grand Piano"
V:2 bass 
V:1
 z3 z2[Q:1/4=100] [CE] | [CA]2 [CA] [EG]2 [DF] | [CE]2 [CA] c2 B | A3 [=Dc]3 | [EB]3- [EB]2 [DB] | %5
 [CA]2 [CA] [EG]2 [DF] | [CE]2 [CA] [Ec]2 [Fd] | [Ec]3 [DB]3 | [CA]6 | e3 f3 | e6 | c3 d3 | c6 | %13
 [FA]2 [FB] [FA]2 [DF] | [CE]2 [CA] [Ec]2 [Fd] | [Ec]3 [DB]3 |[M:7/4] [CA]6 z2 z2 z4 |] %17
V:2
 z3 z2 [A,,A,] | [A,,A,]2 [A,,E,] [A,,E,]2 [A,,A,] | [A,,A,]2 [A,,A,] [A,E]2 [E,G,D] | %3
 [F,A,D]3 [B,,A,]3 | [E,G,]3- [E,G,]2 [E,G,] | [A,,A,]2 [A,,E,] [A,,E,]2 [A,,A,] | %6
 [A,,A,]2 [A,,A,] [A,,A,]2 [D,A,] | [E,A,]3 [E,G,]3 | [A,,A,]6 | [A,CA]3 [A,DA]3 | [A,CA]6 | %11
 [A,E]3 [A,F]3 | [A,E]6 | [D,A,]2 [D,A,] [D,A,]2 [D,A,] | [A,,A,]2 [A,,A,] [A,,A,]2 [D,A,] | %15
 [E,A,]3 [E,G,]3 |[M:7/4] [A,,A,]6 z2 z2 z4 |] %17

